docs/sprites/sprite.svg

<svg display="none" xmlns="http://www.w3.org/2000/svg">
  <symbol id="facebook" viewBox="0 0 20 20" fill="none">
    <path
      d="M10 0C4.477 0 0 4.477 0 10C0 14.991 3.657 19.128 8.438 19.879V12.89H5.898V10H8.438V7.797C8.438 5.291 9.93 3.907 12.215 3.907C13.309 3.907 14.453 4.102 14.453 4.102V6.562H13.193C11.95 6.562 11.563 7.333 11.563 8.124V10H14.336L13.893 12.89H11.563V19.879C16.343 19.129 20 14.99 20 10C20 4.477 15.523 0 10 0Z"
      fill="currentColor" />
  </symbol>

  <symbol id="instagram" viewBox="0 0 20 20" fill="none">
    <path
      d="M10 0C12.717 0 13.056 0.00999994 14.122 0.0599999C15.187 0.11 15.912 0.277 16.55 0.525C17.21 0.779 17.766 1.123 18.322 1.678C18.8305 2.1779 19.224 2.78259 19.475 3.45C19.722 4.087 19.89 4.813 19.94 5.878C19.987 6.944 20 7.283 20 10C20 12.717 19.99 13.056 19.94 14.122C19.89 15.187 19.722 15.912 19.475 16.55C19.2247 17.2178 18.8311 17.8226 18.322 18.322C17.822 18.8303 17.2173 19.2238 16.55 19.475C15.913 19.722 15.187 19.89 14.122 19.94C13.056 19.987 12.717 20 10 20C7.283 20 6.944 19.99 5.878 19.94C4.813 19.89 4.088 19.722 3.45 19.475C2.78233 19.2245 2.17753 18.8309 1.678 18.322C1.16941 17.8222 0.775931 17.2175 0.525 16.55C0.277 15.913 0.11 15.187 0.0599999 14.122C0.0129999 13.056 0 12.717 0 10C0 7.283 0.00999994 6.944 0.0599999 5.878C0.11 4.812 0.277 4.088 0.525 3.45C0.775236 2.78218 1.1688 2.17732 1.678 1.678C2.17767 1.16923 2.78243 0.775729 3.45 0.525C4.088 0.277 4.812 0.11 5.878 0.0599999C6.944 0.0129999 7.283 0 10 0ZM10 5C8.67392 5 7.40215 5.52678 6.46447 6.46447C5.52678 7.40215 5 8.67392 5 10C5 11.3261 5.52678 12.5979 6.46447 13.5355C7.40215 14.4732 8.67392 15 10 15C11.3261 15 12.5979 14.4732 13.5355 13.5355C14.4732 12.5979 15 11.3261 15 10C15 8.67392 14.4732 7.40215 13.5355 6.46447C12.5979 5.52678 11.3261 5 10 5ZM16.5 4.75C16.5 4.41848 16.3683 4.10054 16.1339 3.86612C15.8995 3.6317 15.5815 3.5 15.25 3.5C14.9185 3.5 14.6005 3.6317 14.3661 3.86612C14.1317 4.10054 14 4.41848 14 4.75C14 5.08152 14.1317 5.39946 14.3661 5.63388C14.6005 5.8683 14.9185 6 15.25 6C15.5815 6 15.8995 5.8683 16.1339 5.63388C16.3683 5.39946 16.5 5.08152 16.5 4.75ZM10 7C10.7956 7 11.5587 7.31607 12.1213 7.87868C12.6839 8.44129 13 9.20435 13 10C13 10.7956 12.6839 11.5587 12.1213 12.1213C11.5587 12.6839 10.7956 13 10 13C9.20435 13 8.44129 12.6839 7.87868 12.1213C7.31607 11.5587 7 10.7956 7 10C7 9.20435 7.31607 8.44129 7.87868 7.87868C8.44129 7.31607 9.20435 7 10 7Z"
      fill="currentColor" />
  </symbol>

  <symbol id="youtube" viewBox="0 0 20 16" fill="none">
    <path
      d="M19.543 2.498C20 4.28 20 8 20 8C20 8 20 11.72 19.543 13.502C19.289 14.487 18.546 15.262 17.605 15.524C15.896 16 10 16 10 16C10 16 4.107 16 2.395 15.524C1.45 15.258 0.708 14.484 0.457 13.502C2.98023e-08 11.72 0 8 0 8C0 8 2.98023e-08 4.28 0.457 2.498C0.711 1.513 1.454 0.738 2.395 0.476C4.107 -1.78814e-07 10 0 10 0C10 0 15.896 -1.78814e-07 17.605 0.476C18.55 0.742 19.292 1.516 19.543 2.498ZM8 11.5L14 8L8 4.5V11.5Z"
      fill="currentColor" />
  </symbol>

  <symbol id="twitter" viewBox="0 0 22 18" fill="none">
    <path
      d="M21.162 2.65593C20.3986 2.99362 19.589 3.2154 18.76 3.31393C19.6338 2.79136 20.2877 1.96894 20.6 0.999927C19.78 1.48793 18.881 1.82993 17.944 2.01493C17.3146 1.34151 16.4804 0.89489 15.571 0.744511C14.6616 0.594133 13.7279 0.748418 12.9153 1.18338C12.1026 1.61834 11.4564 2.30961 11.0771 3.14972C10.6978 3.98983 10.6068 4.93171 10.818 5.82893C9.15512 5.74558 7.52834 5.31345 6.04329 4.56059C4.55825 3.80773 3.24813 2.75097 2.19801 1.45893C1.8263 2.09738 1.63096 2.82315 1.63201 3.56193C1.63201 5.01193 2.37001 6.29293 3.49201 7.04293C2.82802 7.02202 2.17864 6.84271 1.59801 6.51993V6.57193C1.59821 7.53763 1.93238 8.47354 2.54385 9.22099C3.15533 9.96843 4.00649 10.4814 4.95301 10.6729C4.33662 10.84 3.69031 10.8646 3.06301 10.7449C3.32987 11.5762 3.85001 12.3031 4.5506 12.824C5.25118 13.3449 6.09714 13.6337 6.97001 13.6499C6.10249 14.3313 5.10918 14.8349 4.04689 15.1321C2.98459 15.4293 1.87413 15.5142 0.779007 15.3819C2.6907 16.6114 4.9161 17.264 7.18901 17.2619C14.882 17.2619 19.089 10.8889 19.089 5.36193C19.089 5.18193 19.084 4.99993 19.076 4.82193C19.8949 4.23009 20.6016 3.49695 21.163 2.65693L21.162 2.65593Z"
      fill="currentColor" />
  </symbol>
</svg>

<svg display="none" xmlns="http://www.w3.org/2000/svg"><symbol id="facebook" viewBox="0 0 20 20" fill="none"><path d="M10 0C4.477 0 0 4.477 0 10c0 4.991 3.657 9.128 8.438 9.879V12.89h-2.54V10h2.54V7.797c0-2.506 1.492-3.89 3.777-3.89 1.094 0 2.238.195 2.238.195v2.46h-1.26c-1.243 0-1.63.771-1.63 1.562V10h2.773l-.443 2.89h-2.33v6.989C16.343 19.129 20 14.99 20 10c0-5.523-4.477-10-10-10" fill="currentColor"/></symbol><symbol id="instagram" viewBox="0 0 20 20" fill="none"><path d="M10 0c2.717 0 3.056.01 4.122.06s1.79.217 2.428.465c.66.254 1.216.598 1.772 1.153.509.5.902 1.105 1.153 1.772.247.637.415 1.363.465 2.428.047 1.066.06 1.405.06 4.122s-.01 3.056-.06 4.122-.218 1.79-.465 2.428a4.9 4.9 0 0 1-1.153 1.772c-.5.508-1.105.902-1.772 1.153-.637.247-1.363.415-2.428.465-1.066.047-1.405.06-4.122.06s-3.056-.01-4.122-.06-1.79-.218-2.428-.465a4.9 4.9 0 0 1-1.772-1.153A4.9 4.9 0 0 1 .525 16.55C.277 15.913.11 15.187.06 14.122.013 13.056 0 12.717 0 10s.01-3.056.06-4.122.217-1.79.465-2.428a4.9 4.9 0 0 1 1.153-1.772A4.9 4.9 0 0 1 3.45.525C4.088.277 4.812.11 5.878.06 6.944.013 7.283 0 10 0m0 5a5 5 0 1 0 0 10 5 5 0 0 0 0-10m6.5-.25a1.25 1.25 0 1 0-2.5 0 1.25 1.25 0 0 0 2.5 0M10 7a3 3 0 1 1 0 6 3 3 0 0 1 0-6" fill="currentColor"/></symbol><symbol id="youtube" viewBox="0 0 20 16" fill="none"><path d="M19.543 2.498C20 4.28 20 8 20 8s0 3.72-.457 5.502c-.254.985-.997 1.76-1.938 2.022C15.896 16 10 16 10 16s-5.893 0-7.605-.476c-.945-.266-1.687-1.04-1.938-2.022C0 11.72 0 8 0 8s0-3.72.457-5.502c.254-.985.997-1.76 1.938-2.022C4.107 0 10 0 10 0s5.896 0 7.605.476c.945.266 1.687 1.04 1.938 2.022M8 11.5 14 8 8 4.5z" fill="currentColor"/></symbol><symbol id="twitter" viewBox="0 0 22 18" fill="none"><path d="M21.162 2.656a8.4 8.4 0 0 1-2.402.658A4.2 4.2 0 0 0 20.6 1c-.82.488-1.719.83-2.656 1.015a4.182 4.182 0 0 0-7.126 3.814 11.87 11.87 0 0 1-8.62-4.37 4.17 4.17 0 0 0-.566 2.103c0 1.45.738 2.73 1.86 3.48a4.2 4.2 0 0 1-1.894-.522v.052a4.185 4.185 0 0 0 3.355 4.1 4.2 4.2 0 0 1-1.89.073A4.185 4.185 0 0 0 6.97 13.65a8.4 8.4 0 0 1-6.191 1.732 11.83 11.83 0 0 0 6.41 1.88c7.693 0 11.9-6.373 11.9-11.9q0-.271-.013-.54a8.5 8.5 0 0 0 2.087-2.165z" fill="currentColor"/></symbol></svg>
